icons/Schweizicons.svg

<svg width="16" height="16" viewBox="0 0 16 16" fill="none" xmlns="http://www.w3.org/2000/svg">
<path d="M10.5137 4.2564C10.3011 4.21386 10.0884 4.1288 9.91831 4.00121C9.74819 3.87362 9.57806 3.61843 9.36541 3.53337C9.15276 3.44831 8.89757 3.53337 8.72745 3.70349C8.55732 3.87362 8.68492 4.1288 8.59985 4.38399C8.42973 4.85183 7.70671 4.55411 7.23887 4.59664C6.85609 4.59664 6.51584 4.51158 6.21812 4.29893" stroke="#3D3D3D" stroke-width="0.6" stroke-miterlimit="10" stroke-linecap="round"/>
<path d="M6.21811 4.2989C5.96293 4.34144 5.83533 4.80928 5.58015 4.9794C5.32496 5.19205 4.98472 4.85181 4.687 4.76674C4.34675 4.68168 3.96397 4.93687 3.87891 5.27711C3.83638 5.48977 3.92144 5.70242 3.87891 5.91508C3.83638 6.21279 3.62373 6.46798 3.36854 6.68063C3.11336 6.89329 2.85817 7.02088 2.64552 7.27607C2.47539 7.48872 2.3478 7.78644 2.39033 8.08415C2.39033 8.21175 2.39033 8.38187 2.30527 8.46693C2.22021 8.55199 2.13515 8.55199 2.05008 8.55199C1.62478 8.63706 1.242 9.01983 1.242 9.44514C1.242 9.82792 1.41212 10.2532 1.15694 10.5509C1.07187 10.636 0.986812 10.6785 0.90175 10.7636C0.816688 10.8487 0.774157 10.9763 0.816688 11.0613C0.859219 11.1038 0.90175 11.1038 0.944281 11.1464C1.36959 11.274 1.83743 11.0613 2.00755 10.6785C2.09262 10.5084 2.09262 10.2958 2.22021 10.1256C2.3478 9.91298 2.60299 9.78539 2.85817 9.74286C3.11336 9.70033 3.4536 9.57274 3.62373 9.78539C4.04904 10.2532 3.75132 11.0613 3.96397 11.6567C4.04904 11.8269 4.09157 12.0395 4.26169 12.1246C4.43181 12.2522 4.64447 12.2522 4.85712 12.2522C5.49509 12.2097 6.09052 12.0821 6.68595 11.9545C6.94114 11.9119 7.23885 11.8269 7.40898 11.6567C7.66416 11.359 7.45151 10.8912 7.5791 10.5084C7.70669 10.1256 8.30213 10.0406 8.72744 10.2107C9.11021 10.3383 8.98262 10.8487 9.19528 11.1889C9.3654 11.4441 9.83324 11.0188 10.0459 11.2314C10.3436 11.4866 10.2585 11.9545 10.3436 12.3372C10.3436 12.3798 10.3861 12.4648 10.4287 12.5074C10.5137 12.5924 10.6413 12.5074 10.7264 12.4648C10.9816 12.2522 11.1092 11.9545 11.0666 11.6567C11.0666 11.5292 11.0241 11.4441 11.0666 11.3165C11.1092 11.2314 11.2368 11.1464 11.3218 11.0613C11.4919 10.8912 11.4919 10.5935 11.4494 10.3383C11.4069 10.1256 11.4069 9.95551 11.4919 9.74286C11.577 9.57274 11.7897 9.40261 11.9598 9.48767C12.215 9.61527 12.1724 9.99804 12.3426 10.2532C12.5552 10.5509 13.1932 10.6785 13.4058 10.3808C13.4909 10.2532 13.661 10.1682 13.7886 10.2532C13.9162 10.3383 14.0438 10.636 14.1714 10.5509C14.5967 10.2532 13.7036 9.48767 13.9587 9.06237C14.0863 8.80718 14.5116 9.06237 14.8094 9.01983C14.8944 9.01983 14.9369 9.01983 14.9795 8.9773C15.022 8.93477 15.022 8.84971 15.022 8.76465C15.022 8.29681 15.2347 7.74391 15.022 7.3186C14.9369 7.14847 14.6818 7.3186 14.5542 7.44619C14.4266 7.57378 14.3415 7.74391 14.1714 7.78644C13.8311 7.95656 13.4484 7.65885 13.3633 7.3186C13.3208 7.23354 13.3208 7.14847 13.2357 7.10594C13.1081 6.97835 12.8955 7.06341 12.7253 7.06341C12.3426 7.06341 12.0448 6.59557 12.1724 6.21279C12.2575 6.00014 12.4702 5.87255 12.5127 5.65989C12.5977 5.44724 12.4702 5.14952 12.3 4.9794C12.2575 4.93687 12.1724 4.85181 12.0874 4.80928" stroke="#3D3D3D" stroke-width="0.6" stroke-miterlimit="10" stroke-linecap="round"/>
</svg>

<svg xmlns="http://www.w3.org/2000/svg" width="16" height="16" fill="currentColor" class="si si-Schweizicons" viewBox="0 0 16 16">
  <path stroke="#3D3D3D" stroke-linecap="round" stroke-miterlimit="10" stroke-width=".6" d="M10.514 4.256a1.5 1.5 0 0 1-.596-.255c-.17-.127-.34-.383-.553-.468-.212-.085-.467 0-.638.17s-.042.426-.127.681c-.17.468-.893.17-1.361.213-.383 0-.723-.085-1.02-.298"/>
  <path stroke="#3D3D3D" stroke-linecap="round" stroke-miterlimit="10" stroke-width=".6" d="M6.218 4.299c-.255.042-.383.51-.638.68-.255.213-.595-.127-.893-.212-.34-.085-.723.17-.808.51-.043.213.042.425 0 .638-.043.298-.255.553-.51.766-.256.212-.51.34-.723.595-.17.213-.298.51-.256.808 0 .128 0 .298-.085.383s-.17.085-.255.085c-.425.085-.808.468-.808.893 0 .383.17.808-.085 1.106-.085.085-.17.127-.255.213s-.128.212-.085.297c.042.043.085.043.127.085.426.128.893-.085 1.064-.468.085-.17.085-.382.212-.552.128-.213.383-.34.638-.383s.596-.17.766.042c.425.468.127 1.276.34 1.872.085.17.128.383.298.468.17.127.382.127.595.127.638-.042 1.234-.17 1.829-.298.255-.042.553-.127.723-.297.255-.298.043-.766.17-1.149.128-.382.723-.467 1.148-.297.383.127.256.638.468.978.17.255.638-.17.85.042.299.256.213.723.299 1.106 0 .043.042.128.085.17.085.085.212 0 .297-.042.256-.213.383-.51.34-.808 0-.128-.042-.213 0-.34.043-.086.17-.17.256-.256.17-.17.17-.467.127-.723a.96.96 0 0 1 .043-.595c.085-.17.298-.34.468-.255.255.127.212.51.383.765.212.298.85.425 1.063.128.085-.128.255-.213.383-.128.127.085.255.383.382.298.426-.298-.467-1.063-.212-1.489.127-.255.553 0 .85-.042.085 0 .128 0 .17-.043s.043-.127.043-.212c0-.468.213-1.021 0-1.446-.085-.17-.34 0-.468.127-.127.128-.213.298-.383.34-.34.17-.723-.127-.808-.467-.042-.085-.042-.17-.127-.213-.128-.128-.34-.043-.51-.043-.383 0-.681-.467-.554-.85.085-.213.298-.34.34-.553.086-.213-.042-.51-.212-.68a1 1 0 0 0-.213-.17"/>
</svg>
